X:7
T:1st Cello Suite, 7 - Sarabande
C:J.S. Bach
N:Edited by Jack Roberts
L:1/8
Q:1/4=69
M:3/4
K:D
|: "Tempo: 69"[f2A2D2] [g3B3D3]f | c/e/f/g/ [f2A2D2] ed | a=c BB/4A/4G/4F/4 GB | 
c/g/f/e/ [c2E2A,2] BA | e/c/A/G/ F3/2D/ F/A/d/e/ | f/d/B/A/ ^G3/2E/4F/4 G/A/B/c/ | 
d/^g/a/g/ a/e/d/c/ B/d/c/A/ | E/A/B/^G/ A2 A,2 :|: [cEA,]B/A/ [e3A3E3A,3]d/c/ | 
[f/A/D/]c/d/B/ [^A3/2E3/2]B/ c/d/e/f/ | ^A/e/f/g/ fe/d/ c/B/e/c/ | d/B/c/^A/ B2 B,2 | 
[A3/2F3/2]B/4=c/4 [d3/2D3/2G,3/2]^c/ d/e/f/g/ | ^D/a/g/f/ [g3/2B3/2E3/2]f/ e/d/c/B/ | 
A/F/G/F/ [A/F/]B/c/d/ e/g/f/d/ | A/d/e/c/ d2 D2 :| 
 

